study/img/sdensity.svg

<?xml version="1.0" standalone="no"?><!DOCTYPE svg PUBLIC "-//W3C//DTD SVG 1.1//EN" "http://www.w3.org/Graphics/SVG/1.1/DTD/svg11.dtd"><svg style="height: 100px; width: 200px;" id="spikeDens" version="1.1" xmlns="http://www.w3.org/2000/svg" xmlns:xlink="http://www.w3.org/1999/xlink"><defs xmlns="http://www.w3.org/1999/xhtml"><style type="text/css"><![CDATA[
#panel { display: grid; grid-gap: 10px 10px; margin: 20px; }
#panel button { align-self: center; margin: auto; }
.vis { border-style: solid; border-width: 5px; border-color: rgb(255, 255, 255); }
.selected { border-color: crimson; }
.vis:hover { border-style: solid; border-width: 5px; border-color: rgb(51, 51, 51); }
#prompt { color: gray; }
#prompt span { color: black; }
.fig { display: flex; flex-wrap: wrap; width: 50%; margin: auto; justify-content: center; }
.figImg { width: 30%; }
.figCaption { font-size: 85%; align-self: center; }
input[type="submit"], button { background-color: rgb(51, 51, 51); border: none; color: white; padding: 5px 8px; text-align: center; text-decoration: none; display: inline-block; border-radius: 4px; font-size: 16px; }
input[type="submit"]:disabled, button:disabled { background-color: rgb(221, 221, 221); }
input[type="submit"]:hover:enabled, button:hover:enabled { background-color: rgb(85, 85, 85); }]]></style></defs><path fill="#333" d="M0,99.99993500325726C1.3333333333333333,99.99980077067578,2.666666666666667,99.99966653809429,4,99.99912960776835C5.333333333333333,99.99859267744242,6.666666666666667,99.99658951387401,8,99.99150932608535C9.333333333333334,99.98642913829669,10.666666666666666,99.97413700539691,12,99.93939236402005C13.333333333333334,99.90464772264319,14.666666666666666,99.8533699596944,16,99.6813251510431C17.333333333333332,99.50928034239179,18.666666666666668,99.3127618230919,20,98.7539012108631C21.333333333333332,98.19504059863431,22.666666666666668,97.50293003480513,24,96.32816147767035C25.333333333333336,95.15339292053555,26.666666666666668,93.53769767720227,28.000000000000004,91.70528986805436C29.333333333333336,89.87288205890646,30.666666666666668,87.41711680353562,32,85.3337146227829C33.333333333333336,83.2503124420302,34.666666666666664,80.82236942825443,36,79.20487678353807C37.333333333333336,77.5873841388217,38.666666666666664,75.8128303008511,40,75.62875875448468C41.333333333333336,75.44468720811825,42.666666666666664,75.35265143493504,44,75.35265143493504C45.333333333333336,75.35265143493504,46.666666666666664,76.57940177249289,48,77.03032320742055C49.333333333333336,77.48124464234822,50.666666666666664,78.058180044501,52,78.058180044501C53.333333333333336,78.058180044501,54.66666666666667,77.07501088084945,56.00000000000001,75.10867255354636C57.333333333333336,73.14233422624326,58.66666666666667,69.55067645734374,60,65.05119389736143C61.333333333333336,60.55171133737911,62.666666666666664,53.88332630913652,64,48.11177719365247C65.33333333333333,42.34022807816842,66.66666666666667,35.00247761018338,68,30.421899204457134C69.33333333333333,25.841320798730894,70.66666666666667,20.62830675929503,72,20.62830675929503C73.33333333333333,20.62830675929503,74.66666666666667,21.230077596735686,76,22.433619271617005C77.33333333333333,23.637160946498323,78.66666666666667,28.607395641976474,80,31.85625762580024C81.33333333333333,35.105119609624005,82.66666666666667,39.20462130415041,84,41.9267911745596C85.33333333333333,44.648961044968786,86.66666666666667,46.89755771679404,88,48.18927684825538C89.33333333333333,49.480995979716724,90.66666666666667,50.1268555454474,92,50.1268555454474C93.33333333333333,50.1268555454474,94.66666666666667,49.89452922894596,96,49.42987659594309C97.33333333333333,48.96522396294022,98.66666666666667,48.44251068098408,100,46.907135861373874C101.33333333333333,45.37176104176367,102.66666666666667,43.64912829036376,104,40.21762767828185C105.33333333333333,36.78612706619994,106.66666666666667,31.546599595110152,108,26.3181321888824C109.33333333333334,21.089664782654634,110.66666666666667,13.233178605729027,112.00000000000001,8.846823240915285C113.33333333333334,4.46046787610159,114.66666666666666,0,115.99999999999999,0C117.33333333333333,0,118.66666666666666,3.7314812527022454,120,8.746129871249437C121.33333333333333,13.76077848979661,122.66666666666667,22.95063066182098,124,30.08789171128305C125.33333333333333,37.22515276074512,126.66666666666667,45.63318191592446,128,51.56969616802186C129.33333333333334,57.50621042011927,130.66666666666666,62.218622266760626,132,65.70697722386745C133.33333333333334,69.19533218097428,134.66666666666666,70.88830824478805,136,72.49982591066284C137.33333333333334,74.11134357653762,138.66666666666666,74.45180668404814,140,75.37608321911615C141.33333333333334,76.30035975418417,142.66666666666666,76.91656066819971,144,78.04548512107095C145.33333333333334,79.1744095739422,146.66666666666666,80.79945279410822,148,82.14962993634359C149.33333333333334,83.49980707857895,150.66666666666666,85.18800223249991,152,86.1465479744832C153.33333333333334,87.10509371646648,154.66666666666666,87.84047816049275,156,87.90090438824328C157.33333333333334,87.9613306159938,158.66666666666666,87.93111750211854,160,87.99154372986906C161.33333333333334,88.05196995761959,162.66666666666666,88.29729629830867,164,88.90880143518788C165.33333333333334,89.5203065720671,166.66666666666666,90.69076761822427,168,91.76310432931955C169.33333333333334,92.83544104041482,170.66666666666666,94.29790501789299,172,95.34282170175953C173.33333333333334,96.38773838562608,174.66666666666666,97.35897206778932,176,98.03260443251881C177.33333333333334,98.7062367972483,178.66666666666666,99.08032095061498,180,99.38461589013644C181.33333333333334,99.68891082965791,182.66666666666666,99.77986422952581,184,99.85837406964761C185.33333333333334,99.9368839097694,186.66666666666666,99.96218556541837,188,99.9761388298303C189.33333333333334,99.99009209424224,190.66666666666666,99.99528905272074,192,99.99706872644822C193.33333333333334,99.9988484001757,194.66666666666666,99.99957503089014,196,99.99973823703945C197.33333333333334,99.99990144318876,198.66666666666666,99.99994224472609,200,99.99998304626341L200,100C198.66666666666666,100,197.33333333333334,100,196,100C194.66666666666666,100,193.33333333333334,100,192,100C190.66666666666666,100,189.33333333333334,100,188,100C186.66666666666666,100,185.33333333333334,100,184,100C182.66666666666666,100,181.33333333333334,100,180,100C178.66666666666666,100,177.33333333333334,100,176,100C174.66666666666666,100,173.33333333333334,100,172,100C170.66666666666666,100,169.33333333333334,100,168,100C166.66666666666666,100,165.33333333333334,100,164,100C162.66666666666666,100,161.33333333333334,100,160,100C158.66666666666666,100,157.33333333333334,100,156,100C154.66666666666666,100,153.33333333333334,100,152,100C150.66666666666666,100,149.33333333333334,100,148,100C146.66666666666666,100,145.33333333333334,100,144,100C142.66666666666666,100,141.33333333333334,100,140,100C138.66666666666666,100,137.33333333333334,100,136,100C134.66666666666666,100,133.33333333333334,100,132,100C130.66666666666666,100,129.33333333333334,100,128,100C126.66666666666667,100,125.33333333333333,100,124,100C122.66666666666667,100,121.33333333333333,100,120,100C118.66666666666666,100,117.33333333333333,100,115.99999999999999,100C114.66666666666666,100,113.33333333333334,100,112.00000000000001,100C110.66666666666667,100,109.33333333333334,100,108,100C106.66666666666667,100,105.33333333333333,100,104,100C102.66666666666667,100,101.33333333333333,100,100,100C98.66666666666667,100,97.33333333333333,100,96,100C94.66666666666667,100,93.33333333333333,100,92,100C90.66666666666667,100,89.33333333333333,100,88,100C86.66666666666667,100,85.33333333333333,100,84,100C82.66666666666667,100,81.33333333333333,100,80,100C78.66666666666667,100,77.33333333333333,100,76,100C74.66666666666667,100,73.33333333333333,100,72,100C70.66666666666667,100,69.33333333333333,100,68,100C66.66666666666667,100,65.33333333333333,100,64,100C62.666666666666664,100,61.333333333333336,100,60,100C58.66666666666667,100,57.333333333333336,100,56.00000000000001,100C54.66666666666667,100,53.333333333333336,100,52,100C50.666666666666664,100,49.333333333333336,100,48,100C46.666666666666664,100,45.333333333333336,100,44,100C42.666666666666664,100,41.333333333333336,100,40,100C38.666666666666664,100,37.333333333333336,100,36,100C34.666666666666664,100,33.333333333333336,100,32,100C30.666666666666668,100,29.333333333333336,100,28.000000000000004,100C26.666666666666668,100,25.333333333333336,100,24,100C22.666666666666668,100,21.333333333333332,100,20,100C18.666666666666668,100,17.333333333333332,100,16,100C14.666666666666666,100,13.333333333333334,100,12,100C10.666666666666666,100,9.333333333333334,100,8,100C6.666666666666667,100,5.333333333333333,100,4,100C2.666666666666667,100,1.3333333333333333,100,0,100Z"/></svg>

<?xml version="1.0" encoding="utf-8"?>
<!-- Generator: Adobe Illustrator 16.0.4, SVG Export Plug-In . SVG Version: 6.00 Build 0)  -->
<!DOCTYPE svg PUBLIC "-//W3C//DTD SVG 1.1//EN" "http://www.w3.org/Graphics/SVG/1.1/DTD/svg11.dtd">
<svg version="1.1" id="spikeDens" xmlns="http://www.w3.org/2000/svg" xmlns:xlink="http://www.w3.org/1999/xlink" x="0px" y="0px"
	 width="200px" height="100px" viewBox="0 0 200 100" enable-background="new 0 0 200 100" xml:space="preserve">
<defs  xmlns="http://www.w3.org/1999/xhtml">
	<style  type="text/css">
		<![CDATA[
#panel { display: grid; grid-gap: 10px 10px; margin: 20px; }
#panel button { align-self: center; margin: auto; }
.vis { border-style: solid; border-width: 5px; border-color: rgb(255, 255, 255); }
.selected { border-color: crimson; }
.vis:hover { border-style: solid; border-width: 5px; border-color: rgb(51, 51, 51); }
#prompt { color: gray; }
#prompt span { color: black; }
.fig { display: flex; flex-wrap: wrap; width: 50%; margin: auto; justify-content: center; }
.figImg { width: 30%; }
.figCaption { font-size: 85%; align-self: center; }
input[type="submit"], button { background-color: rgb(51, 51, 51); border: none; color: white; padding: 5px 8px; text-align: center; text-decoration: none; display: inline-block; border-radius: 4px; font-size: 16px; }
input[type="submit"]:disabled, button:disabled { background-color: rgb(221, 221, 221); }
input[type="submit"]:hover:enabled, button:hover:enabled { background-color: rgb(85, 85, 85); }
			]]>
	</style>
</defs>
<path fill="#333333" d="M0,100c1.333,0,2.667,0,4-0.001s2.667-0.002,4-0.007c1.333-0.005,2.667-0.018,4-0.052s2.667-0.086,4-0.258
	c1.333-0.172,2.667-0.369,4-0.927s2.667-1.251,4-2.426s2.667-2.791,4-4.623c1.333-1.832,2.667-4.288,4-6.371
	c1.333-2.083,2.667-4.512,4-6.129c1.333-1.618,2.667-3.392,4-3.576s2.667-0.276,4-0.276s2.667,1.227,4,1.678
	c1.333,0.451,2.667,1.028,4,1.028s2.667-0.983,4-2.95c1.333-1.966,2.667-5.558,4-10.057s2.667-11.168,4-16.939s2.667-13.109,4-17.69
	s2.667-9.793,4-9.793s2.667,0.602,4,1.805s2.667,6.174,4,9.423c1.333,3.249,2.667,7.348,4,10.07s2.667,4.971,4,6.263
	c1.333,1.292,2.667,1.938,4,1.938s2.667-0.232,4-0.697c1.333-0.464,2.667-0.987,4-2.522c1.333-1.536,2.667-3.258,4-6.689
	c1.333-3.432,2.667-8.671,4-13.899s2.667-13.085,4-17.472C113.333,4.46,114.667,0,116,0s2.667,3.731,4,8.746s2.667,14.205,4,21.342
	s2.667,15.545,4,21.482s2.667,10.649,4,14.137s2.667,5.181,4,6.793c1.333,1.611,2.667,1.952,4,2.876s2.667,1.541,4,2.669
	s2.667,2.754,4,4.104c1.333,1.351,2.667,3.039,4,3.997s2.667,1.694,4,1.754s2.667,0.03,4,0.091c1.333,0.06,2.667,0.306,4,0.917
	c1.333,0.612,2.667,1.782,4,2.854s2.667,2.535,4,3.58s2.667,2.016,4,2.69c1.333,0.673,2.667,1.047,4,1.352
	c1.333,0.304,2.667,0.395,4,0.474s2.667,0.104,4,0.118s2.667,0.019,4,0.021s2.667,0.002,4,0.003c1.333,0,2.667,0,4,0l0,0
	c-1.333,0-2.667,0-4,0s-2.667,0-4,0s-2.667,0-4,0s-2.667,0-4,0s-2.667,0-4,0s-2.667,0-4,0s-2.667,0-4,0s-2.667,0-4,0s-2.667,0-4,0
	s-2.667,0-4,0s-2.667,0-4,0s-2.667,0-4,0s-2.667,0-4,0s-2.667,0-4,0s-2.667,0-4,0s-2.667,0-4,0s-2.667,0-4,0s-2.667,0-4,0
	s-2.667,0-4,0s-2.667,0-4,0s-2.667,0-4,0s-2.667,0-4,0s-2.667,0-4,0s-2.667,0-4,0s-2.667,0-4,0s-2.667,0-4,0s-2.667,0-4,0
	s-2.667,0-4,0s-2.667,0-4,0s-2.667,0-4,0s-2.667,0-4,0s-2.667,0-4,0s-2.667,0-4,0s-2.667,0-4,0s-2.667,0-4,0s-2.667,0-4,0
	s-2.667,0-4,0s-2.667,0-4,0s-2.667,0-4,0s-2.667,0-4,0s-2.667,0-4,0s-2.667,0-4,0s-2.667,0-4,0s-2.667,0-4,0s-2.667,0-4,0
	s-2.667,0-4,0s-2.667,0-4,0s-2.667,0-4,0s-2.667,0-4,0S1.333,100,0,100L0,100z"/>
</svg>
